src/22x22/places/folder-gruvbox-original-orange-google-drive.svg

<?xml version="1.0" encoding="UTF-8"?>
<svg width="22" height="22" version="1" xmlns="http://www.w3.org/2000/svg">
 <rect x="1" y="8.5" width="20" height="12" rx="1" ry="1" opacity=".2"/>
 <path d="m1 16c0 0.554 0.446 1 1 1h18c0.554 0 1-0.446 1-1v-11c0-0.554-0.446-1-1-1h-9c-1.5 0-2-2-3.5-2h-5.5c-0.554 0-1 0.446-1 1" fill="#af3a03"/>
 <rect x="1" y="7.5" width="20" height="12" rx="1" ry="1" opacity=".2"/>
 <rect x="3" y="6" width="16" height="8" rx="1" ry="1" fill="#F1D8AF"/>
 <rect x="1" y="8" width="20" height="12" rx="1" ry="1" fill="#fe8019"/>
 <path d="m2 2c-0.554 0-1 0.446-1 1v0.5c0-0.554 0.446-1 1-1h5.5c1.5 0 2 2 3.5 2h9c0.554 0 1 0.446 1 1v-0.5c0-0.554-0.446-1-1-1h-9c-1.5 0-2-2-3.5-2z" fill="#F1D8AF" opacity=".1"/>
 <g fill="#46352B">
  <path d="m15 14.48-2.667-4.48h-2.5831l2.5001 4.48z"/>
  <path d="m10.25 14.97-1.2501 2.03h4.6661l1.334-2.03z"/>
  <path d="M 9.4999,10.5 7,15 8.3333,17 10.85,13 Z"/>
 </g>
</svg>

<svg xmlns="http://www.w3.org/2000/svg" width="22" height="22" version="1">
 <rect style="opacity:0.2" width="20" height="12" x="1" y="8.5" rx="1" ry="1"/>
 <path style="fill:#af3a03" d="M 1,16 C 1,16.554 1.446,17 2,17 H 20 C 20.554,17 21,16.554 21,16 V 5 C 21,4.446 20.554,4 20,4 H 11 C 9.5,4 9,2 7.5,2 H 2 C 1.446,2 1,2.446 1,3"/>
 <rect style="opacity:0.2" width="20" height="12" x="1" y="7.5" rx="1" ry="1"/>
 <rect style="fill:#F1D8AF" width="16" height="8" x="3" y="6" rx="1" ry="1"/>
 <rect style="fill:#fe8019" width="20" height="12" x="1" y="8" rx="1" ry="1"/>
 <path style="opacity:0.1;fill:#F1D8AF" d="M 2,2 C 1.446,2 1,2.446 1,3 V 3.5 C 1,2.946 1.446,2.5 2,2.5 H 7.5 C 9,2.5 9.5,4.5 11,4.5 H 20 C 20.554,4.5 21,4.946 21,5.5 V 5 C 21,4.446 20.554,4 20,4 H 11 C 9.5,4 9,2 7.5,2 Z"/>
 <g>
  <path style="fill:#46352B" d="M 15,14.48 12.333,10 H 9.7499 L 12.25,14.48 Z"/>
  <path style="fill:#46352B" d="M 10.25,14.97 8.9999,17 H 13.666 L 15,14.97 Z"/>
  <path style="fill:#46352B" d="M 9.4999,10.5 7,15 8.3333,17 10.85,13 Z"/>
 </g>
</svg>
